X: 197
T: Shi Duihua
%%abc-version 2.0
%%abcx-abcm2ps-target-version 5.9.1 (29 Sep 2008)
%%abc-creator hum2abc beta
%%abcx-conversion-date 2013/10/02 07:52:29
%%abc-edited-by Helmut Schaffrath
%%humdrum-veritas 1435204420
%%humdrum-veritas-data 1299665401
%%continueall 1
%%barnumbers 0
L: 1/8
M: 2/4
K: G
B d B d [I:setbarnb 1]| 
g e/ g/d2 | 
B GA2 | 
g e/ g/d2 | 
B GA2 | 
A2d2 | 
d2G2 | 
A dG2 | 
G B A G | 
G DG2 |]  



